safari-pinned-tab.svg

<svg fill="none" height="16" viewBox="0 0 16 16" width="16" xmlns="http://www.w3.org/2000/svg"><path d="m0 0h16v16h-16z" fill="#fff"/><path clip-rule="evenodd" d="m7.99845 7.09889 1.96496-3.94707 1.07629.6225-2.43626 3.67667 4.39656-.27527v1.24861l-4.39437-.27196 2.43407 3.67333-1.07942.6243-1.96207-3.94834-1.95853 3.94834-1.0794-.6243 2.43037-3.67354-4.39065.26855v-1.24499l4.39308.27505-2.42967-3.67823 1.07627-.6225z" fill="#191b1f" fill-rule="evenodd"/></svg>

<svg width="16" height="16" viewBox="0 0 16 16" fill="none" xmlns="http://www.w3.org/2000/svg">
<rect width="16" height="16" fill="white"/>
<path fill-rule="evenodd" clip-rule="evenodd" d="M7.99845 7.09889L9.96341 3.15182L11.0397 3.77432L8.60344 7.45099L13 7.17572V8.42433L8.60563 8.15237L11.0397 11.8257L9.96028 12.45L7.99821 8.50166L6.03968 12.45L4.96028 11.8257L7.39065 8.15216L3 8.42071V7.17572L7.39308 7.45077L4.96341 3.77254L6.03968 3.15004L7.99845 7.09889Z" fill="#191B1F"/>
</svg>
